public/img/old-svg/whatsapp.svg

<svg width="20" height="20" viewBox="0 0 20 20" fill="none" xmlns="http://www.w3.org/2000/svg">
<path d="M9.97332 0.764648H9.96854C4.69805 0.764648 0.412109 5.05178 0.412109 10.3235C0.412109 12.4145 1.08601 14.3525 2.23187 15.9261L1.0406 19.4772L4.71478 18.3027C6.22626 19.304 8.0293 19.8823 9.97332 19.8823C15.2438 19.8823 19.5298 15.594 19.5298 10.3235C19.5298 5.05298 15.2438 0.764648 9.97332 0.764648ZM15.5354 14.2629C15.3048 14.9141 14.3895 15.4542 13.6594 15.6119C13.16 15.7182 12.5076 15.8031 10.3115 14.8926C7.50237 13.7288 5.69336 10.8743 5.55237 10.6891C5.41735 10.5039 4.41726 9.17761 4.41726 7.80592C4.41726 6.43423 5.11386 5.7663 5.39465 5.47954C5.62525 5.24415 6.00641 5.13662 6.37204 5.13662C6.49033 5.13662 6.59667 5.14259 6.69226 5.14737C6.97305 5.15932 7.11404 5.17605 7.29924 5.61934C7.52985 6.17494 8.09143 7.54663 8.15834 7.68763C8.22645 7.82862 8.29455 8.0198 8.19897 8.205C8.10935 8.39617 8.03049 8.48101 7.8895 8.64351C7.74851 8.80601 7.61468 8.93027 7.47369 9.10472C7.34465 9.25647 7.19887 9.41897 7.36137 9.69976C7.52387 9.97458 8.08545 10.891 8.91229 11.6271C9.9793 12.577 10.8444 12.8805 11.1538 13.0095C11.3844 13.1051 11.6593 13.0824 11.8277 12.9032C12.0416 12.6726 12.3057 12.2902 12.5745 11.9138C12.7657 11.6438 13.0071 11.6103 13.2604 11.7059C13.5185 11.7955 14.8842 12.4706 15.165 12.6104C15.4457 12.7514 15.631 12.8183 15.6991 12.9366C15.766 13.0549 15.766 13.6105 15.5354 14.2629Z" fill="white"/>
</svg>

<svg width="20" height="20" viewBox="0 0 20 20" fill="none" xmlns="http://www.w3.org/2000/svg"><path d="M9.973.765H9.97C4.699.765.412 5.052.412 10.324c0 2.09.674 4.028 1.82 5.602L1.04 19.477l3.674-1.174a9.476 9.476 0 005.258 1.58c5.27 0 9.557-4.289 9.557-9.56 0-5.27-4.286-9.558-9.557-9.558zm5.562 13.498c-.23.651-1.146 1.191-1.876 1.349-.499.106-1.151.191-3.348-.72-2.809-1.163-4.618-4.018-4.759-4.203-.135-.185-1.135-1.511-1.135-2.883s.697-2.04.978-2.326c.23-.236.611-.343.977-.343.118 0 .225.006.32.01.281.012.422.029.607.472.23.556.792 1.928.86 2.069.067.14.136.332.04.517-.09.191-.169.276-.31.439-.14.162-.274.286-.415.46-.13.152-.275.315-.113.596.163.275.724 1.191 1.551 1.927 1.067.95 1.932 1.253 2.242 1.382.23.096.505.073.674-.106.214-.23.478-.613.747-.99.19-.27.432-.303.685-.207.258.09 1.624.765 1.905.904.28.141.466.208.534.327.067.118.067.674-.164 1.326z" fill="#fff"/></svg>
